!!!COM: Josephine Lang
!!!CNT: Deutsch
!!!TXO: Deutsch
!!!OTL: "Scheideblick"
!!!LYR: Lenau
!!!OPS: Op. 10
!!!ONM: No. 5
!!!ENC: Alyona Dzerbina, phrasing by LVH
!!!YOR: Josephine Lang: Selected Songs
!!!YOR: Da Capo Press, 1982
!!!ODT: 1839/
!!NB: Vocal melody only encoded.
**kern
*staff1
*clefG2
*k[]
*met(C)
*M4/4
*MM[Lento]
1r
=2
1r
=3
1r
=4
1r
=5
1r
=6
1r
=7
1r
=8
1r
=9
{4.c
8c
4.e
8e
=10
8e
8e
8.g
16f
(4f
4e)}
=11
{4.f
8f
4e
8r
8e
=12
8e
8e
8d
8c
4d}
4r
=13
4r
{8.d
16e
4f
4a
=14
8.f
16f
8e
8B
4c}
4r
=15
{8c
8c
8.B
16c
4e
4d
=16
(4.c
8g)
4g
4f#}
=17
{4.cc
8c
4B
8r
8f
=18
8f
8f
8.e
16d
4c}
4r
=19
4r
{8.B
16c
4e
8r
8d
=20
8c
8B
8.A
16B
2c}
=21
1r
=22
1r
=23
1r
=24
1r
=25
1r
=26
1r
==
*-
